assets/features/channel/southeast-asia1/security-bank.svg

<svg width="80" height="80" viewBox="0 0 80 80" fill="none" xmlns="http://www.w3.org/2000/svg">
<rect x="0.5" y="0.5" width="79" height="79" rx="7.5" fill="white"/>
<rect x="0.5" y="0.5" width="79" height="79" rx="7.5" stroke="#EEEEEE"/>
<path d="M34.208 23.1506C36.7042 21.2863 39.7596 20.1949 42.8699 20.0291C46.753 19.7904 50.6751 21.0297 53.7744 23.3683C53.7265 23.4432 53.6765 23.5171 53.6246 23.589C51.5308 26.1274 49.4429 28.6717 47.3501 31.2111C47.1824 31.4198 47.0166 31.6295 46.8279 31.8192C45.6437 33.1902 44.5204 34.6142 43.3591 36.0052C40.0222 40.0604 36.6862 44.1175 33.3463 48.1717C31.3343 46.3813 29.7657 44.0936 28.8271 41.5672C27.544 38.1251 27.4701 34.2387 28.6564 30.7587C29.6728 27.734 31.6448 25.0469 34.208 23.1506Z" fill="#A0CF67"/>
<path d="M43.3593 36.0053C44.5205 34.6143 45.6438 33.1904 46.828 31.8193C49.0876 33.8444 50.803 36.4796 51.6757 39.3895C52.6592 42.6398 52.6013 46.2057 51.47 49.4101C50.4526 52.3329 48.5394 54.9332 46.0632 56.7875C43.3034 58.8795 39.8436 60.0209 36.3828 59.9999C32.8032 60.0119 29.2406 58.7936 26.3999 56.6177C28.7104 53.7978 31.0299 50.9858 33.3464 48.1719C36.6864 44.1177 40.0223 40.0605 43.3593 36.0053Z" fill="#1AB7EA"/>
</svg>

<svg xmlns="http://www.w3.org/2000/svg" width="80" height="80" fill="none" viewBox="0 0 80 80"><rect width="79" height="79" x=".5" y=".5" fill="#fff" rx="7.5"/><rect width="79" height="79" x=".5" y=".5" stroke="#eee" rx="7.5"/><path fill="#a0cf67" d="M34.208 23.15a16 16 0 0 1 8.662-3.12c3.883-.24 7.805 1 10.904 3.338a5 5 0 0 1-.15.221c-2.093 2.538-4.181 5.083-6.274 7.622-.168.209-.333.419-.522.608-1.184 1.371-2.308 2.795-3.469 4.186q-5.004 6.084-10.013 12.167a16.65 16.65 0 0 1-4.519-6.605c-1.283-3.442-1.357-7.328-.17-10.808a15.8 15.8 0 0 1 5.551-7.608"/><path fill="#1ab7ea" d="M43.36 36.005c1.16-1.39 2.284-2.815 3.468-4.186 2.26 2.025 3.975 4.66 4.848 7.57.983 3.25.925 6.817-.206 10.021a15.76 15.76 0 0 1-5.407 7.378A16 16 0 0 1 36.383 60c-3.58.012-7.142-1.206-9.983-3.382 2.31-2.82 4.63-5.632 6.946-8.446q5.009-6.082 10.013-12.167"/></svg>
